svgs/light/earth-africa.svg

<svg xmlns="http://www.w3.org/2000/svg" viewBox="0 0 512 512"><!--! Font Awesome Pro 6.4.0 by @fontawesome - https://fontawesome.com License - https://fontawesome.com/license (Commercial License) Copyright 2023 Fonticons, Inc. --><path d="M480 256c0-16.8-1.8-33.1-5.3-48.8l-47.2-11.8c-4.1-1-8.4 .2-11.3 3.1c-2 2-3.6 4.2-4.9 6.7l-.3 .6c-7.9 15.8-22.1 27.3-38.6 31.9l15.1 15.1c8 8 12.5 18.9 12.5 30.2c0 19.5-13.2 36.5-32 41.4v6.2c0 17.3-5.6 34.2-16 48l-25.6 34.1C317.3 424.9 303.1 432 288 432c-26.5 0-48-21.5-48-48V336H208c-35.3 0-64-28.7-64-64V244c0-17.6 8.3-34.2 22.4-44.8l39.4-29.5c8.4-6.3 18.5-9.7 29-9.7c5.2 0 10.3 .8 15.3 2.5l32 10.7c4.3 1.4 9 1.6 13.4 .5l34.3-8.6c3.7-.9 6.3-4.3 6.3-8.1c0-2.8-1.4-5.4-3.7-6.9L306 132.6c-7.6 7.3-17.7 11.4-28.2 11.4c-6.3 0-12.5-1.5-18.2-4.3l-13.2-6.6c-23.9 36.9-83 14.6-74.9-30.2L175 84.3c.4-2 .2-4.1-.4-6.1l-9-27.1C86.9 85.8 32 164.5 32 256c0 123.7 100.3 224 224 224s224-100.3 224-224zm-16.5-84.6C430.1 89.6 349.8 32 256 32c-20.9 0-41.2 2.9-60.4 8.2l9.3 27.8c2.4 7.1 2.9 14.6 1.6 22l-3.4 18.7c-1.9 10.2 12 15.2 17.1 6.1c7.4-13.4 24.1-18.5 37.8-11.7l16 8c1.2 .6 2.5 .9 3.8 .9c2.3 0 4.5-.9 6.1-2.5l3.5-3.5c8.5-8.5 21.7-9.8 31.7-3.1L350 123.5c11.2 7.5 18 20.1 18 33.5c0 18.5-12.6 34.6-30.5 39.1l-34.3 8.6c-10.3 2.6-21.2 2.2-31.3-1.2l-32-10.7c-1.7-.6-3.4-.8-5.1-.8c-3.5 0-7 1.1-9.8 3.3l-39.4 29.5c-6 4.5-9.6 11.6-9.6 19.2v28c0 17.7 14.3 32 32 32h32c17.7 0 32 14.3 32 32v48c0 8.8 7.2 16 16 16c5 0 9.8-2.4 12.8-6.4l25.6-34.1c6.2-8.3 9.6-18.4 9.6-28.8V318.6c0-11.2 7.6-21 18.5-23.7l5.3-1.3c4.8-1.2 8.2-5.5 8.2-10.5c0-2.9-1.1-5.6-3.2-7.6l-40.2-40.2c-4.6-4.6-5.9-11.5-3.5-17.4s8.3-9.9 14.8-9.9h19.7c11.3 0 21.6-6.4 26.7-16.5l.3-.6c2.8-5.6 6.4-10.7 10.9-15.1c10.9-10.9 26.8-15.3 41.7-11.6l28.2 7.1zM0 256a256 256 0 1 1 512 0A256 256 0 1 1 0 256z"/></svg>

<svg xmlns="http://www.w3.org/2000/svg" viewBox="0 0 512 512"><!--! Font Awesome Pro 6.3.0 by @fontawesome - https://fontawesome.com License - https://fontawesome.com/license (Commercial License) Copyright 2023 Fonticons, Inc. --><path d="M512 256C512 397.4 397.4 512 256 512C114.6 512 0 397.4 0 256C0 114.6 114.6 0 256 0C397.4 0 512 114.6 512 256zM474.7 207.2L427.5 195.4C423.4 194.3 419.1 195.5 416.1 198.5C414.2 200.5 412.5 202.7 411.3 205.2L410.1 205.8C403.1 221.6 388.9 233.1 372.3 237.7L387.5 252.8C395.5 260.9 400 271.7 400 283.1C400 302.6 386.8 319.6 368 324.5V330.7C368 347.1 362.4 364.8 352 378.7L326.4 412.8C317.3 424.9 303.1 432 288 432C261.5 432 240 410.5 240 384V336H208C172.7 336 144 307.3 144 272V244C144 226.4 152.3 209.8 166.4 199.2L205.8 169.7C214.1 163.4 224.3 160 234.8 160C239.1 160 245.1 160.8 250 162.5L282 173.1C286.3 174.6 290.1 174.8 295.4 173.7L329.7 165.1C333.4 164.2 336 160.8 336 157C336 154.2 334.6 151.6 332.3 150.1L306 132.6C298.5 139.9 288.3 144 277.8 144C271.5 144 265.3 142.5 259.6 139.7L246.4 133.1C222.6 169.1 163.4 147.7 171.6 102.9L174.1 84.28C175.3 82.24 175.2 80.14 174.5 78.17L165.5 51.04C86.86 85.82 32 164.5 32 256C32 379.7 132.3 480 256 480C379.7 480 480 379.7 480 256C480 239.2 478.2 222.9 474.7 207.2V207.2zM256 32C235.1 32 214.8 34.87 195.6 40.23L204.9 68.05C207.2 75.12 207.8 82.67 206.4 90L203.1 108.7C201.2 118.9 215.1 123.9 220.2 114.8C227.6 101.4 244.3 96.24 257.9 103.1L273.1 111.1C275.2 111.7 276.5 112 277.8 112C280.1 112 282.3 111.1 283.9 109.5L287.4 105.1C295.9 97.51 309.1 96.2 319.1 102.8L350 123.5C361.3 130.9 368 143.5 368 157C368 175.5 355.4 191.6 337.5 196.1L303.2 204.7C292.8 207.3 281.1 206.9 271.9 203.5L239.9 192.8C238.2 192.3 236.5 192 234.8 192C231.2 192 227.8 193.1 224.1 195.3L185.6 224.8C179.6 229.3 176 236.4 176 244V272C176 289.7 190.3 304 208 304H240C257.7 304 272 318.3 272 336V384C272 392.8 279.2 400 288 400C293 400 297.8 397.6 300.8 393.6L326.4 359.5C332.6 351.2 336 341.1 336 330.7V318.6C336 307.4 343.6 297.6 354.5 294.9L359.8 293.5C364.6 292.3 368 288 368 283.1C368 280.2 366.9 277.5 364.8 275.5L324.7 235.3C320.1 230.7 318.7 223.9 321.2 217.9C323.7 211.9 329.5 208 336 208H355.7C366.1 208 377.3 201.6 382.4 191.5L382.6 190.9C385.4 185.4 389.1 180.3 393.5 175.9C404.4 164.1 420.3 160.6 435.2 164.3L463.5 171.4C430.1 89.61 349.8 32 256 32V32z"/></svg>
